X:1
T:Out of Bondage
T:Out of Bondage
T:William Howard Doane
T:Frances Jane (Fanny) Crosby), 1877
T:Public Domain Courtesy of the Cyber Hymnal™
T:Public Domain Courtesy of the Cyber Hymnal™
C:William Howard Doane
Z:Public Domain
Z:Courtesy of the Cyber Hymnal™
%%score 1 ( 2 3 )
L:1/8
Q:1/4=100
M:4/4
K:Ab
V:1 treble 
V:2 bass 
V:3 bass 
V:1
 [CE] | [CE]2 [Ec][CA] [Ec]2 [Fd][Ec] | [FB][FA] [FA]>[DF] [CE]3 [CE] | %3
w: 1.~A-|rise, come ye forth, and for-|ev- er break the chain That|
w: 2.~A-|rise, come ye forth; will ye|spend your life for naught, When|
w: 3.~A-|rise, come ye forth, and be|slaves to sin no more, How|
 [CE]2 [EA][EB] [Ec]2 [Ec][Ec] | [=Dc]2 [DB][DA] [EB]3 [_DE] | [CE]2 [Ec][CA] [Ec]2 [Fd][Ec] | %6
w: long had op- pressed you with|sor- row and pain; A-|rise, come ye forth, hear the|
w: Je- sus who loves you a|ran- som has bought? The|price of His blood, O re-|
w: oft your de- liv- ’rer has|called you be- fore; Come|forth from your bonds, and your|
 [FB][FA] [FA]>[DF] [CE]3 [CE] | [CE][EA][Ac][Ae] [Ae][Ec][EA][FB] | [Ec]2 [EB]2 [EA]3 || %9
w: bless- èd Lord’s com- mand, And|He Him- self will guide you with a|strong, strong hand.|
w: ceive it while you may; Be-|hold the prom- ised time is now; O|come a- way.|
w: lib- er- ty re- ceive, Your|will- ing hearts to Je- sus give; re-|pent, be- lieve.|
"^Refrain" [Ec] | [Ec]3 [=Ec] [Ec]3 [EB] | [FA]>[FA] [FA]>[FB] [=Ec]3 [Ec] | %12
w: |||
w: Come|forth, come forth, and|shout the ju- bi- lee, Come|
w: |||
 [=Ec]3 [Ec] [Fc]3 [CA] | [=DB]>[Dc] [DB][DA] [EG]3 [_DF] | [CE]2 [Ec][CA] [Ec]2 [Fd][Ec] | %15
w: |||
w: forth, come forth, the|Lord will make you free; Come|forth from your bonds, hear the|
w: |||
 [FB][FA] [FA]>[DF] [CE]3 [CE] | [CE][EA][Ac][Ae] [Ae][Ec][EA][FB] | [Ec]2 [EB]2 !fermata![EA]3 |] %18
w: |||
w: bless- èd Lord’s com- mand, And|He Him- self will guide you with a|strong, strong hand.|
w: |||
V:2
 [A,,A,] | [A,,A,]2 [A,,A,][A,,A,] [A,,A,]2 [A,,A,][A,,A,] | %2
 [D,A,][D,A,] [D,A,]>[D,A,] [A,,A,]3 [A,,A,] | [A,,A,]2 [C,A,][B,,G,] [A,,A,]2 [A,,A,][A,,A,] | %4
 [B,,A,]2 [B,,F,][B,,B,] [E,G,]3 [E,G,] | [A,,A,]2 [A,,A,][A,,A,] [A,,A,]2 [A,,A,][A,,A,] | %6
 [D,A,][D,A,] [D,A,]>[F,A,] A,3 A, | A,[A,C][A,E][A,C] [A,C]A,[C,A,][D,A,] | %8
 [E,A,]2 [E,D]2 [A,,C]3 || [A,C] | [A,C]3 [G,B,] [G,B,]3 [G,C] | %11
 [F,C]>[F,C] [F,C]>[D,G,] [C,G,]3 [C,G,] | [C,G,]3 [C,G,] [F,A,]3 F, | %13
 [B,,F,]>[B,,F,] [B,,F,][B,,B,] [E,B,]3 [E,G,] | [A,,A,]2 [A,,A,][A,,A,] [A,,A,]2 [A,,A,][A,,A,] | %15
 [D,A,][D,A,] [D,A,]>[F,A,] A,3 A, | A,[A,C][A,E][A,C] [A,C]A,[C,A,][D,A,] | %17
 [E,A,]2 [E,D]2 [A,,C]3 |] %18
V:3
 x | x8 | x8 | x8 | x8 | x8 | x4 A,3 A, | A, x3 A, x3 | x7 || x | x8 | x8 | x7 F, | x8 | x8 | %15
 x4 A,3 A, | A, x3 A, x3 | x7 |] %18

